X:1
T:Constant Billy
T:None So Pretty
T:The Legacy
O:English
Z:John Chambers <jc:trillian.mit.edu>
R:Jig
M:6/8
L:1/8
K:G
|: D \
| "G"G2d BGB | "C"c>BA "D7"F2D | "G"BAG "C"EFG | "D7"DEF "G"G2(3D/E/F/ \
| "G"G2d BGB | "C"c>BA "D7"F2D | "G"BAG "C"EFG | "D7"DEF "G"G2 :|
|: G \
| "G"Bcd "C"e2A | "D7"ABc "G"d2B | "G"Bcd "C"e2e | "D7"ABc def \
| "G"g2d BGB | "C"c>BA "D7"F2D | "G"BAG "C"EFG | "D7"DEF "G"G2 :|
